X: 14
T: Rights Of Man, The
Z: NfldWhistler
S: https://thesession.org/tunes/83#setting46327
R: hornpipe
M: 4/4
L: 1/8
K: Ddor
|:(3ABA GA FGEF|DEFG ~A2de|fedc dcGA|BFcA GAFG|
AFGA FGEF|DEFG ~A2de|fefG A2ef|1 d2 (3edc d4:|2 d2 (3edc defg||
|:a3f defg|a3f de (3fed|cAGA cdef|gece gefd|
fede fefg|afge fede|fefG A2ef|1 d2 (3edc defg:|2 d2 (3edc d4||

